dist/img/calc_svg/setings.svg

<svg width="20" height="20" viewBox="0 0 20 20" fill="none" xmlns="http://www.w3.org/2000/svg">
<path d="M8.05469 1.6665L7.64616 3.76937C6.95935 4.02838 6.32866 4.39145 5.77604 4.84521L3.75618 4.1486L1.80957 7.51774L3.42741 8.92399C3.36522 9.30585 3.33301 9.65971 3.33301 9.99984C3.33301 10.3405 3.36618 10.6937 3.42741 11.0757V11.0773L1.80957 12.4836L3.75618 15.8511L5.77441 15.1561C6.32709 15.6101 6.9592 15.9711 7.64616 16.2303L8.05469 18.3332H11.9447L12.3532 16.2303C13.0404 15.9711 13.6704 15.6086 14.2233 15.1545L16.2432 15.8511L18.1882 12.4836L16.5719 11.0757C16.6341 10.6938 16.6663 10.34 16.6663 9.99984C16.6663 9.66022 16.634 9.30682 16.5719 8.92562V8.92399L18.1898 7.51611L16.2432 4.1486L14.2249 4.84359C13.6723 4.38957 13.0401 4.02853 12.3532 3.76937L11.9447 1.6665H8.05469ZM9.42839 3.33317H10.571L10.8949 4.99984L11.764 5.32861C12.2879 5.52606 12.7586 5.79713 13.167 6.13265L13.8864 6.72184L15.488 6.17171L16.0592 7.15967L14.7799 8.27295L14.9264 9.18929V9.19092C14.9774 9.50337 14.9997 9.76548 14.9997 9.99984C14.9997 10.2342 14.9774 10.4963 14.9264 10.8088L14.7783 11.7251L16.0576 12.8384L15.4863 13.828L13.8864 13.2762L13.1654 13.867C12.7569 14.2025 12.2879 14.4736 11.764 14.6711H11.7624L10.8932 14.9998L10.5693 16.6665H9.42839L9.10449 14.9998L8.23535 14.6711C7.71146 14.4736 7.24078 14.2025 6.83236 13.867L6.11296 13.2778L4.51139 13.828L3.9401 12.84L5.22103 11.7251L5.07292 10.812V10.8104C5.02269 10.4966 4.99967 10.2337 4.99967 9.99984C4.99967 9.76548 5.02196 9.50341 5.07292 9.19092L5.22103 8.27458L3.9401 7.1613L4.51139 6.17171L6.11296 6.72347L6.83236 6.13265C7.24078 5.79713 7.71146 5.52606 8.23535 5.32861L9.10449 4.99984L9.42839 3.33317ZM9.99967 6.6665C8.16924 6.6665 6.66634 8.1694 6.66634 9.99984C6.66634 11.8303 8.16924 13.3332 9.99967 13.3332C11.8301 13.3332 13.333 11.8303 13.333 9.99984C13.333 8.1694 11.8301 6.6665 9.99967 6.6665ZM9.99967 8.33317C10.9259 8.33317 11.6663 9.07361 11.6663 9.99984C11.6663 10.9261 10.9259 11.6665 9.99967 11.6665C9.07344 11.6665 8.33301 10.9261 8.33301 9.99984C8.33301 9.07361 9.07344 8.33317 9.99967 8.33317Z" fill="white"/>
</svg>

<svg width="20" height="20" viewBox="0 0 20 20" fill="none" xmlns="http://www.w3.org/2000/svg"><path d="M8.055 1.667l-.409 2.102a6.626 6.626 0 00-1.87 1.076l-2.02-.696L1.81 7.518l1.617 1.406A6.672 6.672 0 003.333 10c0 .34.033.694.094 1.076v.001L1.81 12.484l1.946 3.367 2.018-.695a6.628 6.628 0 001.872 1.074l.409 2.103h3.89l.408-2.103a6.62 6.62 0 001.87-1.075l2.02.696 1.945-3.367-1.616-1.408c.062-.382.094-.736.094-1.076 0-.34-.032-.693-.094-1.074v-.002l1.618-1.408-1.947-3.367-2.018.695a6.626 6.626 0 00-1.872-1.075l-.408-2.103h-3.89zm1.373 1.666h1.143L10.895 5l.869.329a4.95 4.95 0 011.403.804l.72.589 1.601-.55.571.988-1.28 1.113.147.916v.002c.051.312.074.574.074.809 0 .234-.023.496-.074.809l-.148.916 1.28 1.113-.572.99-1.6-.552-.72.591a4.945 4.945 0 01-1.402.804h-.002l-.869.329-.324 1.666H9.43L9.103 15l-.869-.329a4.953 4.953 0 01-1.403-.804l-.719-.59-1.602.551-.57-.988 1.28-1.115-.148-.913v-.002A5.132 5.132 0 015 10c0-.235.022-.497.073-.81l.148-.915-1.28-1.114.57-.99 1.602.552.72-.59a4.95 4.95 0 011.402-.804l.87-.33.323-1.666zM10 6.666A3.347 3.347 0 006.666 10 3.347 3.347 0 0010 13.333 3.347 3.347 0 0013.333 10 3.347 3.347 0 0010 6.667zm0 1.667c.926 0 1.666.74 1.666 1.667A1.66 1.66 0 0110 11.666 1.66 1.66 0 018.333 10c0-.926.74-1.667 1.667-1.667z" fill="#fff"/></svg>
